icons/src/scalable/default/hicolor/teamviewer.svg

<?xml version="1.0" encoding="UTF-8" standalone="no"?>
<!-- Created with Inkscape (http://www.inkscape.org/) -->

<svg
   xmlns:dc="http://purl.org/dc/elements/1.1/"
   xmlns:cc="http://creativecommons.org/ns#"
   xmlns:rdf="http://www.w3.org/1999/02/22-rdf-syntax-ns#"
   xmlns:svg="http://www.w3.org/2000/svg"
   xmlns="http://www.w3.org/2000/svg"
   xmlns:xlink="http://www.w3.org/1999/xlink"
   xmlns:sodipodi="http://sodipodi.sourceforge.net/DTD/sodipodi-0.dtd"
   xmlns:inkscape="http://www.inkscape.org/namespaces/inkscape"
   width="1024"
   height="1024"
   id="svg2"
   version="1.1"
   inkscape:version="0.92.4 (5da689c313, 2019-01-14)"
   sodipodi:docname="teamviewer.svg">
  <defs
     id="defs4">
    <linearGradient
       id="linearGradient901"
       inkscape:collect="always">
      <stop
         id="stop897"
         offset="0"
         style="stop-color:#111111;stop-opacity:1" />
      <stop
         id="stop899"
         offset="1"
         style="stop-color:#333333;stop-opacity:1" />
    </linearGradient>
    <linearGradient
       id="linearGradient895">
      <stop
         style="stop-color:#003dc0;stop-opacity:1;"
         offset="0"
         id="stop887" />
      <stop
         id="stop889"
         offset="0.32290244"
         style="stop-color:#2867df;stop-opacity:1;" />
      <stop
         style="stop-color:#246ced;stop-opacity:0"
         offset="0.72603363"
         id="stop891" />
      <stop
         style="stop-color:#5191ff;stop-opacity:1;"
         offset="1"
         id="stop893" />
    </linearGradient>
    <linearGradient
       inkscape:collect="always"
       id="linearGradient1085">
      <stop
         style="stop-color:#111111;stop-opacity:1"
         offset="0"
         id="stop1081" />
      <stop
         style="stop-color:#3b3b3b;stop-opacity:1"
         offset="1"
         id="stop1083" />
    </linearGradient>
    <linearGradient
       inkscape:collect="always"
       id="linearGradient940">
      <stop
         style="stop-color:#ffffff;stop-opacity:1"
         offset="0"
         id="stop936" />
      <stop
         style="stop-color:#c7d7e7;stop-opacity:1"
         offset="1"
         id="stop938" />
    </linearGradient>
    <linearGradient
       id="linearGradient4829">
      <stop
         style="stop-color:#f4fbfc;stop-opacity:1;"
         offset="0"
         id="stop4831" />
      <stop
         style="stop-color:#d6d6d6;stop-opacity:1;"
         offset="1"
         id="stop4833" />
    </linearGradient>
    <clipPath
       clipPathUnits="userSpaceOnUse"
       id="clipPath4282">
      <rect
         style="color:#000000;display:inline;overflow:visible;visibility:visible;fill:#4d4d4d;fill-opacity:1;fill-rule:nonzero;stroke:none;stroke-width:9.13434315;marker:none;enable-background:accumulate"
         id="rect4284"
         width="246.875"
         height="234.375"
         x="462.5"
         y="1646.1122"
         ry="17"
         rx="17" />
    </clipPath>
    <linearGradient
       inkscape:collect="always"
       xlink:href="#a"
       id="linearGradient4835"
       x1="102.29776"
       y1="-0.42686829"
       x2="102.29776"
       y2="199.16539"
       gradientUnits="userSpaceOnUse"
       gradientTransform="matrix(4.9,0,0,4.9,22,50.362184)" />
    <linearGradient
       inkscape:collect="always"
       xlink:href="#linearGradient5423"
       id="linearGradient5429"
       x1="408.66196"
       y1="44.604382"
       x2="408.66196"
       y2="562.04968"
       gradientUnits="userSpaceOnUse" />
    <linearGradient
       id="linearGradient5423">
      <stop
         id="stop5427"
         offset="0"
         style="stop-color:#003dc0;stop-opacity:1;" />
      <stop
         style="stop-color:#2867df;stop-opacity:1;"
         offset="0.32290244"
         id="stop972" />
      <stop
         id="stop974"
         offset="0.72603363"
         style="stop-color:#246ced;stop-opacity:1" />
      <stop
         id="stop5425"
         offset="1"
         style="stop-color:#5191ff;stop-opacity:1;" />
    </linearGradient>
    <linearGradient
       inkscape:collect="always"
       xlink:href="#linearGradient895"
       id="linearGradient6197"
       gradientUnits="userSpaceOnUse"
       x1="97.555794"
       y1="21.679062"
       x2="97.555794"
       y2="242.7205"
       gradientTransform="matrix(4.7049999,0,0,4.7049999,41.500018,69.862192)" />
    <clipPath
       clipPathUnits="userSpaceOnUse"
       id="clipPath6245">
      <rect
         style="color:#000000;display:inline;overflow:visible;visibility:visible;opacity:0.85;fill:#ffffff;fill-opacity:1;fill-rule:nonzero;stroke:none;stroke-width:1.5;marker:none;enable-background:accumulate"
         id="rect6247"
         width="300"
         height="259.375"
         x="-901.5625"
         y="792.98718"
         rx="16.46875"
         ry="16.46875" />
    </clipPath>
    <linearGradient
       inkscape:collect="always"
       xlink:href="#linearGradient4829"
       id="linearGradient6392"
       x1="106.6204"
       y1="868.99115"
       x2="106.6204"
       y2="1041.3843"
       gradientUnits="userSpaceOnUse" />
    <linearGradient
       inkscape:collect="always"
       xlink:href="#linearGradient4829"
       id="linearGradient6523"
       x1="142.68672"
       y1="731.52191"
       x2="142.68672"
       y2="1204.222"
       gradientUnits="userSpaceOnUse" />
    <linearGradient
       gradientTransform="translate(1169.8974,-34.165258)"
       id="l"
       y2="-0.32418999"
       gradientUnits="userSpaceOnUse"
       x2="511.60999"
       y1="1026.9"
       x1="511.60999">
      <stop
         stop-color="#096fd2"
         offset="0"
         id="stop6" />
      <stop
         stop-color="#0e8ee9"
         offset="1"
         id="stop8" />
    </linearGradient>
    <linearGradient
       gradientTransform="matrix(0.65219607,0,0,0.65219607,166.32508,210.23235)"
       id="k"
       y2="376.45001"
       gradientUnits="userSpaceOnUse"
       x2="412.85999"
       y1="648.08002"
       x1="412.95001">
      <stop
         stop-color="#096fd2"
         offset="0"
         id="stop11"
         style="stop-color:#b2d8fc;stop-opacity:1" />
      <stop
         stop-color="#0e8ee9"
         offset="1"
         id="stop13"
         style="stop-color:#ffffff;stop-opacity:1" />
    </linearGradient>
    <linearGradient
       id="j"
       y2="293.06"
       gradientUnits="userSpaceOnUse"
       x2="1391.7"
       y1="728.90997"
       x1="1391.7">
      <stop
         stop-color="#096fd2"
         offset="0"
         id="stop16" />
      <stop
         stop-color="#0e8ee9"
         offset="1"
         id="stop18" />
    </linearGradient>
    <linearGradient
       id="i"
       y2="414.01001"
       gradientUnits="userSpaceOnUse"
       x2="2429.5"
       y1="728.29999"
       x1="2429.5">
      <stop
         stop-color="#096fd2"
         offset="0"
         id="stop21" />
      <stop
         stop-color="#0e8ee9"
         offset="1"
         id="stop23" />
    </linearGradient>
    <linearGradient
       id="h"
       y2="411.59"
       gradientUnits="userSpaceOnUse"
       x2="2006.5"
       y1="735.19"
       x1="2006.5">
      <stop
         stop-color="#096fd2"
         offset="0"
         id="stop26" />
      <stop
         stop-color="#0e8ee9"
         offset="1"
         id="stop28" />
    </linearGradient>
    <linearGradient
       id="g"
       y2="410.57999"
       gradientUnits="userSpaceOnUse"
       x2="1680.3"
       y1="739.54999"
       x1="1678.1">
      <stop
         stop-color="#096fd2"
         offset="0"
         id="stop31" />
      <stop
         stop-color="#0e8ee9"
         offset="1"
         id="stop33" />
    </linearGradient>
    <linearGradient
       id="f"
       y2="413.31"
       gradientUnits="userSpaceOnUse"
       x2="4382"
       y1="728.37"
       x1="4382">
      <stop
         stop-color="#096fd2"
         offset="0"
         id="stop36" />
      <stop
         stop-color="#0e8ee9"
         offset="1"
         id="stop38" />
    </linearGradient>
    <linearGradient
       id="e"
       y2="413.59"
       gradientUnits="userSpaceOnUse"
       x2="4142.2998"
       y1="737.34003"
       x1="4142.2998">
      <stop
         stop-color="#096fd2"
         offset="0"
         id="stop41" />
      <stop
         stop-color="#0e8ee9"
         offset="1"
         id="stop43" />
    </linearGradient>
    <linearGradient
       id="d"
       y2="422.85999"
       gradientUnits="userSpaceOnUse"
       x2="3643.8999"
       y1="728.65997"
       x1="3643.8999">
      <stop
         stop-color="#096fd2"
         offset="0"
         id="stop46" />
      <stop
         stop-color="#0e8ee9"
         offset="1"
         id="stop48" />
    </linearGradient>
    <linearGradient
       id="c"
       y2="413.51999"
       gradientUnits="userSpaceOnUse"
       x2="3319.3"
       y1="737.35999"
       x1="3319.3">
      <stop
         stop-color="#096fd2"
         offset="0"
         id="stop51" />
      <stop
         stop-color="#0e8ee9"
         offset="1"
         id="stop53" />
    </linearGradient>
    <linearGradient
       id="b"
       y2="293.70999"
       gradientUnits="userSpaceOnUse"
       x2="2894.1001"
       y1="728.59003"
       x1="2894.1001">
      <stop
         stop-color="#096fd2"
         offset="0"
         id="stop56" />
      <stop
         stop-color="#0e8ee9"
         offset="1"
         id="stop58" />
    </linearGradient>
    <linearGradient
       id="a"
       y2="293.10001"
       gradientUnits="userSpaceOnUse"
       x2="3135.1001"
       y1="728.29999"
       x1="3135.1001">
      <stop
         stop-color="#096fd2"
         offset="0"
         id="stop61" />
      <stop
         stop-color="#0e8ee9"
         offset="1"
         id="stop63" />
    </linearGradient>
    <linearGradient
       inkscape:collect="always"
       xlink:href="#linearGradient940"
       id="linearGradient942"
       x1="494.68472"
       y1="65.525818"
       x2="494.68472"
       y2="1015.0532"
       gradientUnits="userSpaceOnUse"
       gradientTransform="matrix(1.0742187,0,0,1.0742187,-25.153161,-44.216216)" />
    <filter
       inkscape:collect="always"
       style="color-interpolation-filters:sRGB"
       id="filter966"
       x="-0.024225161"
       width="1.0484503"
       y="-0.07004685"
       height="1.1400937">
      <feGaussianBlur
         inkscape:collect="always"
         stdDeviation="5.5515993"
         id="feGaussianBlur968" />
    </filter>
    <linearGradient
       inkscape:collect="always"
       xlink:href="#linearGradient1085"
       id="linearGradient1087"
       x1="520"
       y1="152.36218"
       x2="520"
       y2="932.36218"
       gradientUnits="userSpaceOnUse" />
    <linearGradient
       inkscape:collect="always"
       xlink:href="#linearGradient901"
       id="linearGradient1091"
       gradientUnits="userSpaceOnUse"
       x1="520"
       y1="152.36218"
       x2="520"
       y2="932.36218"
       gradientTransform="matrix(1.109375,0,0,1.109375,-51.972784,-67.150486)" />
  </defs>
  <sodipodi:namedview
     id="base"
     pagecolor="#ffffff"
     bordercolor="#666666"
     borderopacity="1.0"
     inkscape:pageopacity="0.0"
     inkscape:pageshadow="2"
     inkscape:zoom="0.71679688"
     inkscape:cx="497.3515"
     inkscape:cy="510.6049"
     inkscape:document-units="px"
     inkscape:current-layer="layer1"
     showgrid="true"
     inkscape:window-width="1920"
     inkscape:window-height="958"
     inkscape:window-x="0"
     inkscape:window-y="25"
     inkscape:window-maximized="1"
     inkscape:snap-from-guide="true"
     showguides="true"
     inkscape:guide-bbox="true"
     inkscape:pagecheckerboard="true">
    <sodipodi:guide
       position="0,0"
       orientation="0,200"
       id="guide3764"
       inkscape:locked="false" />
    <sodipodi:guide
       position="200,0"
       orientation="-200,0"
       id="guide3766"
       inkscape:locked="false" />
    <sodipodi:guide
       position="200,200"
       orientation="0,-200"
       id="guide3768"
       inkscape:locked="false" />
    <sodipodi:guide
       position="0,200"
       orientation="200,0"
       id="guide3770"
       inkscape:locked="false" />
    <inkscape:grid
       type="xygrid"
       id="grid920" />
  </sodipodi:namedview>
  <metadata
     id="metadata7">
    <rdf:RDF>
      <cc:Work
         rdf:about="">
        <dc:format>image/svg+xml</dc:format>
        <dc:type
           rdf:resource="http://purl.org/dc/dcmitype/StillImage" />
        <dc:title />
      </cc:Work>
    </rdf:RDF>
  </metadata>
  <g
     inkscape:label="Layer 1"
     inkscape:groupmode="layer"
     id="layer1"
     transform="translate(0,-28.36218)">
    <circle
       style="color:#000000;display:inline;overflow:visible;visibility:visible;fill:url(#linearGradient4835);fill-opacity:1.0;fill-rule:nonzero;stroke:none;stroke-width:44.75828171;marker:none;enable-background:accumulate"
       id="path4188"
       cx="512"
       cy="540.36218"
       r="490" />
    <circle
       style="color:#000000;display:inline;overflow:visible;visibility:visible;fill:url(#linearGradient6197);fill-opacity:1;fill-rule:nonzero;stroke:none;stroke-width:42.97708511;marker:none;enable-background:accumulate"
       id="path4188-6"
       cx="512"
       cy="540.36218"
       r="470.5" />
    <circle
       r="384"
       cy="547.61707"
       cx="508.3699"
       id="circle1073"
       style="color:#000000;display:inline;overflow:visible;visibility:visible;fill:url(#linearGradient1087);fill-opacity:1;fill-rule:nonzero;stroke:none;stroke-width:35.07587814;marker:none;enable-background:accumulate" />
    <circle
       style="color:#000000;display:inline;overflow:visible;visibility:visible;opacity:0.5;fill:url(#linearGradient1091);fill-opacity:1;fill-rule:nonzero;stroke:none;stroke-width:38.91230392;marker:none;enable-background:accumulate"
       id="circle1089"
       cx="512"
       cy="540.36218"
       r="426" />
    <path
       id="path952"
       class="cls-1"
       d="M 786.99999,556.51649 581.37352,461.4449 597.8937,522.36218 H 426.10628 l 16.52018,-60.91728 -205.62647,95.14165 205.76658,95.07159 -16.52017,-60.91728 h 171.78743 l -16.52019,60.91728 205.48635,-95.07159"
       style="opacity:0.2;fill:#000000;fill-opacity:1;stroke-width:0.70060122;filter:url(#filter966)"
       inkscape:connector-curvature="0" />
    <path
       inkscape:connector-curvature="0"
       style="fill:url(#linearGradient942);fill-opacity:1;stroke-width:0.70060122"
       d="m 787,540.32715 -205.62647,-95.07159 16.52018,60.91728 H 426.10629 L 442.62647,445.25556 237,540.39721 442.76658,635.4688 426.24641,574.55152 H 598.03384 L 581.51365,635.4688 787,540.39721"
       class="cls-1"
       id="path89" />
  </g>
</svg>

<svg version="1.1" viewBox="0 0 1024 1024" xmlns="http://www.w3.org/2000/svg" xmlns:xlink="http://www.w3.org/1999/xlink">
 <defs>
  <linearGradient id="c" x1="102.3" x2="102.3" y1="-.42687" y2="199.17" gradientTransform="matrix(4.9 0 0 4.9 22 50.362)" gradientUnits="userSpaceOnUse">
   <stop stop-color="#096fd2" offset="0"/>
   <stop stop-color="#0e8ee9" offset="1"/>
  </linearGradient>
  <linearGradient id="b" x1="97.556" x2="97.556" y1="21.679" y2="242.72" gradientTransform="matrix(4.705 0 0 4.705 41.5 69.862)" gradientUnits="userSpaceOnUse">
   <stop stop-color="#003dc0" offset="0"/>
   <stop stop-color="#2867df" offset=".3229"/>
   <stop stop-color="#246ced" stop-opacity="0" offset=".72603"/>
   <stop stop-color="#5191ff" offset="1"/>
  </linearGradient>
  <linearGradient id="a" x1="494.68" x2="494.68" y1="65.526" y2="1015.1" gradientTransform="matrix(1.0742 0 0 1.0742 -25.153 -44.216)" gradientUnits="userSpaceOnUse">
   <stop stop-color="#fff" offset="0"/>
   <stop stop-color="#c7d7e7" offset="1"/>
  </linearGradient>
  <filter id="f" x="-.024225" y="-.070047" width="1.0485" height="1.1401" color-interpolation-filters="sRGB">
   <feGaussianBlur stdDeviation="5.5515993"/>
  </filter>
  <linearGradient id="e" x1="520" x2="520" y1="152.36" y2="932.36" gradientUnits="userSpaceOnUse">
   <stop stop-color="#111" offset="0"/>
   <stop stop-color="#3b3b3b" offset="1"/>
  </linearGradient>
  <linearGradient id="d" x1="520" x2="520" y1="152.36" y2="932.36" gradientTransform="matrix(1.1094 0 0 1.1094 -51.973 -67.15)" gradientUnits="userSpaceOnUse">
   <stop stop-color="#111" offset="0"/>
   <stop stop-color="#333" offset="1"/>
  </linearGradient>
 </defs>
 <g transform="translate(0 -28.362)">
  <circle cx="512" cy="540.36" r="490" color="#000000" fill="url(#c)"/>
  <g>
   <g>
    <circle cx="512" cy="540.36" r="470.5" color="#000000" fill="url(#b)"/>
    <circle cx="508.37" cy="547.62" r="384" color="#000000" fill="url(#e)"/>
    <circle cx="512" cy="540.36" r="426" color="#000000" fill="url(#d)" opacity=".5"/>
   </g>
   <path class="cls-1" d="m787 556.52-205.63-95.072 16.52 60.917h-171.79l16.52-60.917-205.63 95.142 205.77 95.072-16.52-60.917h171.79l-16.52 60.917 205.49-95.072" filter="url(#f)" opacity=".2" stroke-width=".7006"/>
   <path class="cls-1" d="m787 540.33-205.63-95.072 16.52 60.917h-171.79l16.52-60.917-205.63 95.142 205.77 95.072-16.52-60.917h171.79l-16.52 60.917 205.49-95.072" fill="url(#a)" stroke-width=".7006"/>
  </g>
 </g>
</svg>
